X: 443
%
U:~=!turn!
T: Mr. Alexander Cunningham's Strathspey
C:
O:Scotland
B:Keith Norman MacDonald : "The Skye collection of the best reels & strathspeys extant" : 1887
Z:Ralph Palmer
R:Strathspey
M:C|
L:1/8
K:D
"Slow"D>E G/F/E/D/ B,<ETE>F | D>E (G/F/)E/D/ F<A A2 | (d3/2e/4f/4) AF BB,TB,>A, | D/D/D D/D/D TF>EF<A ::
Td>f (g/f/)e/d/ Tceef | Td>efb adf(b | a)dAF BB,TB,>A, | D/D/D D/D/D TF>EF<A |
Td>f {/g}fe/d/ Tceef | Td>efb afge | "express."fdAF BB,EC | D/D/D TF>A {/c}d>DF<A |]


